icons/telescope-filled-24.svg

<svg width="24" height="25" viewBox="0 0 24 25" fill="none" xmlns="http://www.w3.org/2000/svg">
<path d="M17.2154 22.8997C17.5641 22.6762 17.6655 22.2123 17.4419 21.8636L13.4419 15.6247C13.2407 15.3109 12.8395 15.1925 12.5002 15.3467L9.75016 16.5967C9.62029 16.6558 9.50996 16.7506 9.4321 16.8701L6.18215 21.859C5.95606 22.2061 6.05413 22.6707 6.40121 22.8968C6.74828 23.1229 7.21292 23.0249 7.43901 22.6778L10.5697 17.8719L11.0802 17.6399V23.2795C11.0802 23.6937 11.416 24.0295 11.8302 24.0295C12.2444 24.0295 12.5802 23.6937 12.5802 23.2795V17.0598L16.1792 22.6731C16.4027 23.0218 16.8667 23.1233 17.2154 22.8997Z" fill="#24292E"/>
<path fill-rule="evenodd" clip-rule="evenodd" d="M0.468143 15.1592C-0.0515348 14.2591 0.20485 13.111 1.05806 12.5174L17.0989 1.35847C18.045 0.700292 19.3502 0.975892 19.9494 1.96039L22.7763 6.60469C23.3932 7.61815 22.9973 8.94274 21.9254 9.45143L4.16324 17.881C3.22168 18.3278 2.09481 17.9767 1.57371 17.0741L0.468143 15.1592ZM5.73202 11.0932L7.71827 14.5335L6.35873 15.1787L4.49629 11.9528L5.73202 11.0932ZM13.5737 5.63804L16.4303 10.399L17.7918 9.75278L14.8079 4.77949L13.5737 5.63804Z" fill="#24292E"/>
</svg>

<svg xmlns="http://www.w3.org/2000/svg" width="24" height="25" viewBox="0 0 24 25"><path d="M17.215 22.9a.75.75 0 00.227-1.036l-4-6.24a.75.75 0 00-.942-.277l-2.75 1.25a.75.75 0 00-.318.273l-3.25 4.989a.75.75 0 001.257.819l3.13-4.806.511-.232v5.64a.75.75 0 001.5 0v-6.22l3.6 5.613a.75.75 0 001.035.227z"/><path fill-rule="evenodd" d="M.468 15.16a2 2 0 01.59-2.643l16.04-11.159a2 2 0 012.851.602l2.827 4.645a2 2 0 01-.85 2.846l-17.763 8.43a2 2 0 01-2.59-.807L.469 15.16zm5.264-4.067l1.986 3.44-1.36.646-1.862-3.226 1.236-.86zm7.842-5.455l2.856 4.761 1.362-.646-2.984-4.974-1.234.859z"/></svg>
